X:342
T:Invercauld
R:Strathspey
B:The Athole Collection
M:C|
L:1/8
K:A Minor
D/D/D E>G A>GE>G|D/D/D E>G c3e|d<B g>B A>GE>G|D/D/D E>G A2A:|
|:B|c>AB>G A>GE>G|c>Bc>d e>^fg>e|d>Bg>B A>GE>G|D/D/D E>G A2A:|

